X: 051
T: a Fig for Bonaparte
%R: jig
B: Thompson's Twenty four Country Dances (for the Year 1804) p.5 #1
S: http://folkopedia.efdss.org/images/2/28/Thompson24_1804.PDF  2014-8-2
Z: 2014 John Chambers <jc:trillian.mit.edu>
M: 6/8
L: 1/8
K: F
c |\
cdc fed | cdB A2f | fgf agf | egg g2c |\
cdc fed | cdB A2a | aba gfe | f3 f2 :|
|: f/g/ |\
aff faf | gec c2B | Acf Gce | TB3 A2A |\
BdG ceA | dfB egc | agf cde | f3 f2 :|
% - - - - - - - - - - - - - - - - - - - - - - - - -
%%begintext align
%% Whole Figures with the top Couple, lead
%% down the middle up again, And pousette.
%%endtext
% - - - - - - - - - - - - - - - - - - - - - - - - -
